dist/icons/logo_footer.svg

<svg width="848" height="349" viewBox="0 0 848 349" fill="none" xmlns="http://www.w3.org/2000/svg">
<path d="M109.2 82.1536C109.2 82.8203 108.933 83.4203 108.4 83.9536C108 84.3536 107.467 84.5536 106.8 84.5536H41.4C40.7333 84.5536 40.4 84.887 40.4 85.5536V116.554C40.4 117.22 40.7333 117.554 41.4 117.554H84.4C85.0667 117.554 85.6 117.82 86 118.354C86.5333 118.754 86.8 119.287 86.8 119.954V139.354C86.8 140.02 86.5333 140.62 86 141.154C85.6 141.554 85.0667 141.754 84.4 141.754H41.4C40.7333 141.754 40.4 142.087 40.4 142.754V197.954C40.4 198.62 40.1333 199.22 39.6 199.754C39.2 200.154 38.6667 200.354 38 200.354H14.6C13.9333 200.354 13.3333 200.154 12.8 199.754C12.4 199.22 12.2 198.62 12.2 197.954V62.7536C12.2 62.087 12.4 61.5536 12.8 61.1536C13.3333 60.6203 13.9333 60.3536 14.6 60.3536H106.8C107.467 60.3536 108 60.6203 108.4 61.1536C108.933 61.5536 109.2 62.087 109.2 62.7536V82.1536ZM197.489 200.354C196.156 200.354 195.289 199.687 194.889 198.354L188.889 178.754C188.622 178.22 188.289 177.954 187.889 177.954H138.689C138.289 177.954 137.956 178.22 137.689 178.754L131.889 198.354C131.489 199.687 130.622 200.354 129.289 200.354H103.889C103.089 200.354 102.489 200.154 102.089 199.754C101.689 199.22 101.622 198.487 101.889 197.554L145.089 62.3536C145.489 61.0203 146.356 60.3536 147.689 60.3536H179.089C180.422 60.3536 181.289 61.0203 181.689 62.3536L224.889 197.554C225.022 197.82 225.089 198.154 225.089 198.554C225.089 199.754 224.356 200.354 222.889 200.354H197.489ZM144.889 154.954C144.756 155.754 145.022 156.154 145.689 156.154H180.889C181.689 156.154 181.956 155.754 181.689 154.954L163.689 95.5536C163.556 95.0203 163.356 94.8203 163.089 94.9536C162.822 94.9536 162.622 95.1536 162.489 95.5536L144.889 154.954ZM281.88 201.954C271.213 201.954 261.88 200.287 253.88 196.954C245.88 193.487 239.68 188.62 235.28 182.354C231.013 175.954 228.88 168.554 228.88 160.154V155.754C228.88 155.087 229.08 154.554 229.48 154.154C230.013 153.62 230.613 153.354 231.28 153.354H254.08C254.746 153.354 255.28 153.62 255.68 154.154C256.213 154.554 256.48 155.087 256.48 155.754V158.754C256.48 164.087 258.946 168.62 263.88 172.354C268.813 175.954 275.48 177.754 283.88 177.754C290.946 177.754 296.213 176.287 299.68 173.354C303.146 170.287 304.88 166.554 304.88 162.154C304.88 158.954 303.813 156.287 301.68 154.154C299.546 151.887 296.613 149.954 292.88 148.354C289.28 146.62 283.48 144.287 275.48 141.354C266.546 138.287 258.946 135.154 252.68 131.954C246.546 128.754 241.346 124.42 237.08 118.954C232.946 113.354 230.88 106.487 230.88 98.3536C230.88 90.3536 232.946 83.3536 237.08 77.3536C241.213 71.3536 246.946 66.7536 254.28 63.5536C261.613 60.3536 270.08 58.7536 279.68 58.7536C289.813 58.7536 298.813 60.5536 306.68 64.1536C314.68 67.7536 320.88 72.8203 325.28 79.3536C329.813 85.7536 332.08 93.2203 332.08 101.754V104.754C332.08 105.42 331.813 106.02 331.28 106.554C330.88 106.954 330.346 107.154 329.68 107.154H306.68C306.013 107.154 305.413 106.954 304.88 106.554C304.48 106.02 304.28 105.42 304.28 104.754V103.154C304.28 97.5536 301.946 92.8203 297.28 88.9536C292.746 84.9536 286.48 82.9536 278.48 82.9536C272.213 82.9536 267.28 84.287 263.68 86.9536C260.213 89.6203 258.48 93.287 258.48 97.9536C258.48 101.287 259.48 104.087 261.48 106.354C263.613 108.62 266.68 110.687 270.68 112.554C274.813 114.287 281.146 116.687 289.68 119.754C299.146 123.22 306.546 126.287 311.88 128.954C317.346 131.62 322.213 135.62 326.48 140.954C330.88 146.154 333.08 152.954 333.08 161.354C333.08 173.887 328.48 183.82 319.28 191.154C310.08 198.354 297.613 201.954 281.88 201.954ZM447.863 60.3536C448.529 60.3536 449.063 60.6203 449.463 61.1536C449.996 61.5536 450.263 62.087 450.263 62.7536V82.3536C450.263 83.0203 449.996 83.6203 449.463 84.1536C449.063 84.5536 448.529 84.7536 447.863 84.7536H412.063C411.396 84.7536 411.063 85.087 411.063 85.7536V197.954C411.063 198.62 410.796 199.22 410.263 199.754C409.863 200.154 409.329 200.354 408.663 200.354H385.263C384.596 200.354 383.996 200.154 383.463 199.754C383.063 199.22 382.863 198.62 382.863 197.954V85.7536C382.863 85.087 382.529 84.7536 381.863 84.7536H347.063C346.396 84.7536 345.796 84.5536 345.263 84.1536C344.863 83.6203 344.663 83.0203 344.663 82.3536V62.7536C344.663 62.087 344.863 61.5536 345.263 61.1536C345.796 60.6203 346.396 60.3536 347.063 60.3536H447.863Z" fill="white"/>
<path d="M517.455 201.954C507.055 201.954 497.921 199.954 490.055 195.954C482.188 191.82 476.121 186.087 471.855 178.754C467.588 171.42 465.455 162.954 465.455 153.354V107.154C465.455 97.5536 467.588 89.087 471.855 81.7536C476.121 74.4203 482.188 68.7536 490.055 64.7536C497.921 60.7536 507.055 58.7536 517.455 58.7536C527.721 58.7536 536.721 60.687 544.455 64.5536C552.321 68.287 558.388 73.687 562.655 80.7536C567.055 87.687 569.255 95.7536 569.255 104.954C569.255 106.154 568.455 106.887 566.855 107.154L543.455 108.554H543.055C541.721 108.554 541.055 107.82 541.055 106.354C541.055 99.287 538.855 93.6203 534.455 89.3536C530.188 85.087 524.521 82.9536 517.455 82.9536C510.255 82.9536 504.455 85.087 500.055 89.3536C495.788 93.6203 493.655 99.287 493.655 106.354V154.554C493.655 161.487 495.788 167.087 500.055 171.354C504.455 175.62 510.255 177.754 517.455 177.754C524.521 177.754 530.188 175.62 534.455 171.354C538.855 167.087 541.055 161.487 541.055 154.554C541.055 153.087 541.855 152.354 543.455 152.354L566.855 153.354C567.521 153.354 568.055 153.554 568.455 153.954C568.988 154.354 569.255 154.82 569.255 155.354C569.255 164.554 567.055 172.687 562.655 179.754C558.388 186.82 552.321 192.287 544.455 196.154C536.721 200.02 527.721 201.954 517.455 201.954ZM675.809 200.354C674.476 200.354 673.609 199.687 673.209 198.354L667.209 178.754C666.943 178.22 666.609 177.954 666.209 177.954H617.009C616.609 177.954 616.276 178.22 616.009 178.754L610.209 198.354C609.809 199.687 608.943 200.354 607.609 200.354H582.209C581.409 200.354 580.809 200.154 580.409 199.754C580.009 199.22 579.943 198.487 580.209 197.554L623.409 62.3536C623.809 61.0203 624.676 60.3536 626.009 60.3536H657.409C658.743 60.3536 659.609 61.0203 660.009 62.3536L703.209 197.554C703.343 197.82 703.409 198.154 703.409 198.554C703.409 199.754 702.676 200.354 701.209 200.354H675.809ZM623.209 154.954C623.076 155.754 623.343 156.154 624.009 156.154H659.209C660.009 156.154 660.276 155.754 660.009 154.954L642.009 95.5536C641.876 95.0203 641.676 94.8203 641.409 94.9536C641.143 94.9536 640.943 95.1536 640.809 95.5536L623.209 154.954ZM797.789 200.354C796.456 200.354 795.522 199.754 794.989 198.554L769.989 143.154C769.722 142.62 769.322 142.354 768.789 142.354H750.189C749.522 142.354 749.189 142.687 749.189 143.354V197.954C749.189 198.62 748.922 199.22 748.389 199.754C747.989 200.154 747.456 200.354 746.789 200.354H723.389C722.722 200.354 722.122 200.154 721.589 199.754C721.189 199.22 720.989 198.62 720.989 197.954V62.7536C720.989 62.087 721.189 61.5536 721.589 61.1536C722.122 60.6203 722.722 60.3536 723.389 60.3536H780.589C789.122 60.3536 796.589 62.087 802.989 65.5536C809.522 69.0203 814.522 73.9536 817.989 80.3536C821.589 86.7536 823.389 94.1536 823.389 102.554C823.389 111.62 821.122 119.42 816.589 125.954C812.056 132.354 805.722 136.887 797.589 139.554C796.922 139.82 796.722 140.287 796.989 140.954L824.189 197.554C824.456 198.087 824.589 198.487 824.589 198.754C824.589 199.82 823.856 200.354 822.389 200.354H797.789ZM750.189 84.5536C749.522 84.5536 749.189 84.887 749.189 85.5536V119.754C749.189 120.42 749.522 120.754 750.189 120.754H776.389C781.989 120.754 786.522 119.087 789.989 115.754C793.589 112.42 795.389 108.087 795.389 102.754C795.389 97.4203 793.589 93.087 789.989 89.7536C786.522 86.287 781.989 84.5536 776.389 84.5536H750.189Z" fill="#F6C43D"/>
<path d="M54.5 305.354C55.5667 306.687 56.9 308.454 58.5 310.654C60.1667 312.787 61.8667 315.187 63.6 317.854C65.3333 320.454 67.0333 323.187 68.7 326.054C70.4333 328.92 71.9 331.687 73.1 334.354H62.5C61.1667 331.82 59.7 329.254 58.1 326.654C56.5667 324.054 55 321.587 53.4 319.254C51.8 316.854 50.2 314.62 48.6 312.554C47.0667 310.487 45.6667 308.687 44.4 307.154C43.5333 307.22 42.6333 307.254 41.7 307.254C40.8333 307.254 39.9333 307.254 39 307.254H30.3V334.354H20.6V266.054C23.3333 265.387 26.3667 264.954 29.7 264.754C33.1 264.487 36.2 264.354 39 264.354C48.7333 264.354 56.1333 266.187 61.2 269.854C66.3333 273.52 68.9 278.987 68.9 286.254C68.9 290.854 67.6667 294.787 65.2 298.054C62.8 301.32 59.2333 303.754 54.5 305.354ZM39.8 272.854C35.6667 272.854 32.5 272.954 30.3 273.154V299.254H37.2C40.5333 299.254 43.5333 299.087 46.2 298.754C48.8667 298.42 51.1 297.787 52.9 296.854C54.7667 295.92 56.2 294.62 57.2 292.954C58.2 291.22 58.7 288.954 58.7 286.154C58.7 283.554 58.2 281.387 57.2 279.654C56.2 277.92 54.8333 276.554 53.1 275.554C51.4333 274.554 49.4333 273.854 47.1 273.454C44.8333 273.054 42.4 272.854 39.8 272.854ZM176.991 334.354V265.054H219.291V273.354H186.691V293.954H215.691V302.054H186.691V326.054H221.791V334.354H176.991ZM375.12 334.354C373.653 331.887 371.953 329.12 370.02 326.054C368.153 322.987 366.12 319.82 363.92 316.554C361.72 313.22 359.42 309.854 357.02 306.454C354.686 303.054 352.353 299.787 350.02 296.654C347.686 293.454 345.42 290.454 343.22 287.654C341.02 284.854 338.986 282.387 337.12 280.254V334.354H327.62V265.054H335.32C338.453 268.387 341.786 272.287 345.32 276.754C348.92 281.154 352.453 285.72 355.92 290.454C359.453 295.12 362.753 299.72 365.82 304.254C368.953 308.787 371.586 312.82 373.72 316.354V265.054H383.22V334.354H375.12ZM540.173 265.054V273.454H518.373V334.354H508.673V273.454H486.873V265.054H540.173ZM683.771 334.354C682.638 331.354 681.571 328.42 680.571 325.554C679.571 322.62 678.538 319.654 677.471 316.654H646.071L639.771 334.354H629.671C632.338 327.02 634.838 320.254 637.171 314.054C639.504 307.787 641.771 301.854 643.971 296.254C646.238 290.654 648.471 285.32 650.671 280.254C652.871 275.12 655.171 270.054 657.571 265.054H666.471C668.871 270.054 671.171 275.12 673.371 280.254C675.571 285.32 677.771 290.654 679.971 296.254C682.238 301.854 684.538 307.787 686.871 314.054C689.204 320.254 691.704 327.02 694.371 334.354H683.771ZM674.671 308.654C672.538 302.854 670.404 297.254 668.271 291.854C666.204 286.387 664.038 281.154 661.771 276.154C659.438 281.154 657.204 286.387 655.071 291.854C653.004 297.254 650.938 302.854 648.871 308.654H674.671ZM838.98 325.954V334.354H797.28V265.054H806.98V325.954H838.98Z" fill="white"/>
</svg>

<svg width="848" height="349" fill="none" xmlns="http://www.w3.org/2000/svg"><path d="M109.2 82.154c0 .666-.267 1.266-.8 1.8-.4.4-.933.6-1.6.6H41.4c-.667 0-1 .333-1 1v31c0 .666.333 1 1 1h43c.667 0 1.2.266 1.6.8.533.4.8.933.8 1.6v19.4c0 .666-.267 1.266-.8 1.8-.4.4-.933.6-1.6.6h-43c-.667 0-1 .333-1 1v55.2c0 .666-.267 1.266-.8 1.8-.4.4-.933.6-1.6.6H14.6c-.667 0-1.267-.2-1.8-.6-.4-.534-.6-1.134-.6-1.8v-135.2c0-.667.2-1.2.6-1.6.533-.534 1.133-.8 1.8-.8h92.2a1.9 1.9 0 0 1 1.6.8c.533.4.8.933.8 1.6v19.4Zm88.289 118.2c-1.333 0-2.2-.667-2.6-2l-6-19.6c-.267-.534-.6-.8-1-.8h-49.2c-.4 0-.733.266-1 .8l-5.8 19.6c-.4 1.333-1.267 2-2.6 2h-25.4c-.8 0-1.4-.2-1.8-.6-.4-.534-.467-1.267-.2-2.2l43.2-135.2c.4-1.334 1.267-2 2.6-2h31.4c1.333 0 2.2.666 2.6 2l43.2 135.2c.133.266.2.6.2 1 0 1.2-.733 1.8-2.2 1.8h-25.4Zm-52.6-45.4c-.133.8.133 1.2.8 1.2h35.2c.8 0 1.067-.4.8-1.2l-18-59.4c-.133-.534-.333-.734-.6-.6-.267 0-.467.2-.6.6l-17.6 59.4Zm136.991 47c-10.667 0-20-1.667-28-5-8-3.467-14.2-8.334-18.6-14.6-4.267-6.4-6.4-13.8-6.4-22.2v-4.4c0-.667.2-1.2.6-1.6.533-.534 1.133-.8 1.8-.8h22.8c.666 0 1.2.266 1.6.8.533.4.8.933.8 1.6v3c0 5.333 2.466 9.866 7.4 13.6 4.933 3.6 11.6 5.4 20 5.4 7.066 0 12.333-1.467 15.8-4.4 3.466-3.067 5.2-6.8 5.2-11.2 0-3.2-1.067-5.867-3.2-8-2.134-2.267-5.067-4.2-8.8-5.8-3.6-1.734-9.4-4.067-17.4-7-8.934-3.067-16.534-6.2-22.8-9.4-6.134-3.2-11.334-7.534-15.6-13-4.134-5.6-6.2-12.467-6.2-20.6 0-8 2.066-15 6.2-21 4.133-6 9.866-10.6 17.2-13.8 7.333-3.2 15.8-4.8 25.4-4.8 10.133 0 19.133 1.8 27 5.4 8 3.6 14.2 8.666 18.6 15.2 4.533 6.4 6.8 13.866 6.8 22.4v3c0 .666-.267 1.266-.8 1.8-.4.4-.934.6-1.6.6h-23c-.667 0-1.267-.2-1.8-.6-.4-.534-.6-1.134-.6-1.8v-1.6c0-5.6-2.334-10.334-7-14.2-4.534-4-10.8-6-18.8-6-6.267 0-11.2 1.333-14.8 4-3.467 2.666-5.2 6.333-5.2 11 0 3.333 1 6.133 3 8.4 2.133 2.266 5.2 4.333 9.2 6.2 4.133 1.733 10.466 4.133 19 7.2 9.466 3.466 16.866 6.533 22.2 9.2 5.466 2.666 10.333 6.666 14.6 12 4.4 5.2 6.6 12 6.6 20.4 0 12.533-4.6 22.466-13.8 29.8-9.2 7.2-21.667 10.8-37.4 10.8Zm165.983-141.6c.666 0 1.2.266 1.6.8.533.4.8.933.8 1.6v19.6c0 .666-.267 1.266-.8 1.8-.4.4-.934.6-1.6.6h-35.8c-.667 0-1 .333-1 1v112.2c0 .666-.267 1.266-.8 1.8-.4.4-.934.6-1.6.6h-23.4c-.667 0-1.267-.2-1.8-.6-.4-.534-.6-1.134-.6-1.8v-112.2c0-.667-.334-1-1-1h-34.8c-.667 0-1.267-.2-1.8-.6-.4-.534-.6-1.134-.6-1.8v-19.6c0-.667.2-1.2.6-1.6.533-.534 1.133-.8 1.8-.8h100.8Z" fill="#fff"/><path d="M517.455 201.954c-10.4 0-19.534-2-27.4-6-7.867-4.134-13.934-9.867-18.2-17.2-4.267-7.334-6.4-15.8-6.4-25.4v-46.2c0-9.6 2.133-18.067 6.4-25.4 4.266-7.334 10.333-13 18.2-17 7.866-4 17-6 27.4-6 10.266 0 19.266 1.933 27 5.8 7.866 3.733 13.933 9.133 18.2 16.2 4.4 6.933 6.6 15 6.6 24.2 0 1.2-.8 1.933-2.4 2.2l-23.4 1.4h-.4c-1.334 0-2-.734-2-2.2 0-7.067-2.2-12.734-6.6-17-4.267-4.267-9.934-6.4-17-6.4-7.2 0-13 2.133-17.4 6.4-4.267 4.266-6.4 9.933-6.4 17v48.2c0 6.933 2.133 12.533 6.4 16.8 4.4 4.266 10.2 6.4 17.4 6.4 7.066 0 12.733-2.134 17-6.4 4.4-4.267 6.6-9.867 6.6-16.8 0-1.467.8-2.2 2.4-2.2l23.4 1c.666 0 1.2.2 1.6.6.533.4.8.866.8 1.4 0 9.2-2.2 17.333-6.6 24.4-4.267 7.066-10.334 12.533-18.2 16.4-7.734 3.866-16.734 5.8-27 5.8Zm158.354-1.6c-1.333 0-2.2-.667-2.6-2l-6-19.6c-.266-.534-.6-.8-1-.8h-49.2c-.4 0-.733.266-1 .8l-5.8 19.6c-.4 1.333-1.266 2-2.6 2h-25.4c-.8 0-1.4-.2-1.8-.6-.4-.534-.466-1.267-.2-2.2l43.2-135.2c.4-1.334 1.267-2 2.6-2h31.4c1.334 0 2.2.666 2.6 2l43.2 135.2c.134.266.2.6.2 1 0 1.2-.733 1.8-2.2 1.8h-25.4Zm-52.6-45.4c-.133.8.134 1.2.8 1.2h35.2c.8 0 1.067-.4.8-1.2l-18-59.4c-.133-.534-.333-.734-.6-.6-.266 0-.466.2-.6.6l-17.6 59.4Zm174.58 45.4c-1.333 0-2.267-.6-2.8-1.8l-25-55.4c-.267-.534-.667-.8-1.2-.8h-18.6c-.667 0-1 .333-1 1v54.6c0 .666-.267 1.266-.8 1.8-.4.4-.933.6-1.6.6h-23.4c-.667 0-1.267-.2-1.8-.6-.4-.534-.6-1.134-.6-1.8v-135.2c0-.667.2-1.2.6-1.6.533-.534 1.133-.8 1.8-.8h57.2c8.533 0 16 1.733 22.4 5.2 6.533 3.466 11.533 8.4 15 14.8 3.6 6.4 5.4 13.8 5.4 22.2 0 9.066-2.267 16.866-6.8 23.4-4.533 6.4-10.867 10.933-19 13.6-.667.266-.867.733-.6 1.4l27.2 56.6c.267.533.4.933.4 1.2 0 1.066-.733 1.6-2.2 1.6h-24.6Zm-47.6-115.8c-.667 0-1 .333-1 1v34.2c0 .666.333 1 1 1h26.2c5.6 0 10.133-1.667 13.6-5 3.6-3.334 5.4-7.667 5.4-13 0-5.334-1.8-9.667-5.4-13-3.467-3.467-8-5.2-13.6-5.2h-26.2Z" fill="#F6C43D"/><path d="M54.5 305.354c1.067 1.333 2.4 3.1 4 5.3 1.667 2.133 3.367 4.533 5.1 7.2 1.733 2.6 3.433 5.333 5.1 8.2 1.733 2.866 3.2 5.633 4.4 8.3H62.5c-1.333-2.534-2.8-5.1-4.4-7.7-1.533-2.6-3.1-5.067-4.7-7.4-1.6-2.4-3.2-4.634-4.8-6.7a132.35 132.35 0 0 0-4.2-5.4c-.867.066-1.767.1-2.7.1H30.3v27.1h-9.7v-68.3c2.733-.667 5.767-1.1 9.1-1.3 3.4-.267 6.5-.4 9.3-.4 9.733 0 17.133 1.833 22.2 5.5 5.133 3.666 7.7 9.133 7.7 16.4 0 4.6-1.233 8.533-3.7 11.8-2.4 3.266-5.967 5.7-10.7 7.3Zm-14.7-32.5c-4.133 0-7.3.1-9.5.3v26.1h6.9c3.333 0 6.333-.167 9-.5 2.667-.334 4.9-.967 6.7-1.9 1.867-.934 3.3-2.234 4.3-3.9 1-1.734 1.5-4 1.5-6.8 0-2.6-.5-4.767-1.5-6.5-1-1.734-2.367-3.1-4.1-4.1-1.667-1-3.667-1.7-6-2.1-2.267-.4-4.7-.6-7.3-.6Zm137.191 61.5v-69.3h42.3v8.3h-32.6v20.6h29v8.1h-29v24h35.1v8.3h-44.8Zm198.129 0a377.826 377.826 0 0 0-5.1-8.3 245.935 245.935 0 0 0-6.1-9.5c-2.2-3.334-4.5-6.7-6.9-10.1a313.144 313.144 0 0 0-7-9.8c-2.334-3.2-4.6-6.2-6.8-9s-4.234-5.267-6.1-7.4v54.1h-9.5v-69.3h7.7c3.133 3.333 6.466 7.233 10 11.7 3.6 4.4 7.133 8.966 10.6 13.7a318.663 318.663 0 0 1 9.9 13.8c3.133 4.533 5.766 8.566 7.9 12.1v-51.3h9.5v69.3h-8.1Zm165.053-69.3v8.4h-21.8v60.9h-9.7v-60.9h-21.8v-8.4h53.3Zm143.598 69.3c-1.133-3-2.2-5.934-3.2-8.8-1-2.934-2.033-5.9-3.1-8.9h-31.4l-6.3 17.7h-10.1c2.667-7.334 5.167-14.1 7.5-20.3 2.333-6.267 4.6-12.2 6.8-17.8 2.267-5.6 4.5-10.934 6.7-16 2.2-5.134 4.5-10.2 6.9-15.2h8.9c2.4 5 4.7 10.066 6.9 15.2 2.2 5.066 4.4 10.4 6.6 16a676.24 676.24 0 0 1 6.9 17.8c2.333 6.2 4.833 12.966 7.5 20.3h-10.6Zm-9.1-25.7c-2.133-5.8-4.267-11.4-6.4-16.8a264.833 264.833 0 0 0-6.5-15.7c-2.333 5-4.567 10.233-6.7 15.7-2.067 5.4-4.133 11-6.2 16.8h25.8Zm164.309 17.3v8.4h-41.7v-69.3h9.7v60.9h32Z" fill="#fff"/></svg>
